_includes/icons/ios-google.svg

<svg fill="#666" height="50" viewBox="0 0 50 50" width="50" xmlns="http://www.w3.org/2000/svg"><path d="m26 2c-12.691406 0-23 10.308594-23 23s10.308594 23 23 23c9.917969 0 15.972656-4.5625 19.125-10.21875s3.550781-12.300781 2.59375-16.84375l-.1875-.78125h-.78125l-20.75-.03125h-1v10.40625h11.4375c-1.726562 4-5.242187 6.75-10.4375 6.75-6.789062 0-12.28125-5.492187-12.28125-12.28125 0-6.789062 5.492188-12.28125 12.28125-12.28125 3.050781 0 5.820313 1.128906 7.96875 2.96875l.71875.59375 6.84375-6.84375.71875-.75-.75-.6875c-4.085937-3.722656-9.539062-6-15.5-6zm0 2c5.074219 0 9.652344 1.855469 13.28125 4.84375l-4.8125 4.8125c-2.378906-1.777344-5.269531-2.9375-8.46875-2.9375-7.871094 0-14.28125 6.410156-14.28125 14.28125s6.410156 14.28125 14.28125 14.28125c6.550781 0 11.261719-4.015625 12.9375-9.46875l.40625-1.28125h-12.34375v-6.40625l18.84375.03125c.664063 4.035156.222656 9.828125-2.46875 14.65625-2.859375 5.125-8.054687 9.1875-17.375 9.1875-11.613281 0-21-9.390625-21-21s9.386719-21 21-21z"/></svg>

<svg xmlns="http://www.w3.org/2000/svg" viewBox="0 0 50 50" width="50" height="50" fill="#666"><path d="M 26 2 C 13.308594 2 3 12.308594 3 25 C 3 37.691406 13.308594 48 26 48 C 35.917969 48 41.972656 43.4375 45.125 37.78125 C 48.277344 32.125 48.675781 25.480469 47.71875 20.9375 L 47.53125 20.15625 L 46.75 20.15625 L 26 20.125 L 25 20.125 L 25 30.53125 L 36.4375 30.53125 C 34.710938 34.53125 31.195313 37.28125 26 37.28125 C 19.210938 37.28125 13.71875 31.789063 13.71875 25 C 13.71875 18.210938 19.210938 12.71875 26 12.71875 C 29.050781 12.71875 31.820313 13.847656 33.96875 15.6875 L 34.6875 16.28125 L 41.53125 9.4375 L 42.25 8.6875 L 41.5 8 C 37.414063 4.277344 31.960938 2 26 2 Z M 26 4 C 31.074219 4 35.652344 5.855469 39.28125 8.84375 L 34.46875 13.65625 C 32.089844 11.878906 29.199219 10.71875 26 10.71875 C 18.128906 10.71875 11.71875 17.128906 11.71875 25 C 11.71875 32.871094 18.128906 39.28125 26 39.28125 C 32.550781 39.28125 37.261719 35.265625 38.9375 29.8125 L 39.34375 28.53125 L 27 28.53125 L 27 22.125 L 45.84375 22.15625 C 46.507813 26.191406 46.066406 31.984375 43.375 36.8125 C 40.515625 41.9375 35.320313 46 26 46 C 14.386719 46 5 36.609375 5 25 C 5 13.390625 14.386719 4 26 4 Z"/></svg>
